svgs/bromite.svg

<?xml version="1.0" encoding="UTF-8" standalone="no"?>
<svg
   id="Layer_1"
   data-name="Layer 1"
   viewBox="0 0 24 24"
   version="1.1"
   sodipodi:docname="bromite.svg"
   inkscape:version="1.1.1 (3bf5ae0d25, 2021-09-20, custom)"
   xmlns:inkscape="http://www.inkscape.org/namespaces/inkscape"
   xmlns:sodipodi="http://sodipodi.sourceforge.net/DTD/sodipodi-0.dtd"
   xmlns="http://www.w3.org/2000/svg"
   xmlns:svg="http://www.w3.org/2000/svg">
  <defs
     id="defs13">
    <inkscape:path-effect
       effect="fillet_chamfer"
       id="path-effect1012"
       is_visible="true"
       lpeversion="1"
       satellites_param="F,0,0,1,0,0.75,0,1 @ F,0,1,1,0,0.75,0,1 @ F,0,0,1,0,0,0,1 @ F,0,0,1,0,0,0,1 @ F,0,0,1,0,0,0,1 @ F,0,0,1,0,0,0,1 @ F,0,0,1,0,0.75,0,1 @ F,0,0,1,0,0.75,0,1"
       unit="px"
       method="auto"
       mode="F"
       radius="0.75"
       chamfer_steps="1"
       flexible="false"
       use_knot_distance="true"
       apply_no_radius="true"
       apply_with_radius="true"
       only_selected="true"
       hide_knots="false" />
    <inkscape:path-effect
       effect="fillet_chamfer"
       id="path-effect10762"
       is_visible="true"
       lpeversion="1"
       satellites_param="F,0,0,1,0,0.75,0,1 @ F,0,0,1,0,0.75,0,1 @ F,0,0,1,0,0.75,0,1 @ F,0,0,1,0,0.75,0,1"
       unit="px"
       method="auto"
       mode="F"
       radius="0.75"
       chamfer_steps="1"
       flexible="false"
       use_knot_distance="true"
       apply_no_radius="true"
       apply_with_radius="true"
       only_selected="false"
       hide_knots="false" />
    <inkscape:path-effect
       effect="fillet_chamfer"
       id="path-effect2820"
       is_visible="true"
       lpeversion="1"
       satellites_param="F,0,0,1,0,3,0,1 @ F,0,0,1,0,3,0,1 @ F,0,0,1,0,3,0,1 @ F,0,0,1,0,3,0,1"
       unit="px"
       method="auto"
       mode="F"
       radius="3"
       chamfer_steps="1"
       flexible="false"
       use_knot_distance="true"
       apply_no_radius="true"
       apply_with_radius="true"
       only_selected="false"
       hide_knots="false" />
  </defs>
  <sodipodi:namedview
     id="namedview11"
     pagecolor="#ffffff"
     bordercolor="#666666"
     borderopacity="1.0"
     inkscape:pageshadow="2"
     inkscape:pageopacity="0.0"
     inkscape:pagecheckerboard="0"
     showgrid="true"
     inkscape:snap-object-midpoints="true"
     inkscape:zoom="22.627417"
     inkscape:cx="8.2643105"
     inkscape:cy="7.2257474"
     inkscape:window-width="2560"
     inkscape:window-height="1015"
     inkscape:window-x="0"
     inkscape:window-y="32"
     inkscape:window-maximized="1"
     inkscape:current-layer="Layer_1">
    <inkscape:grid
       type="xygrid"
       id="grid2840"
       empspacing="1" />
  </sodipodi:namedview>
  <circle
     style="fill:none;fill-opacity:1;stroke:#000000;stroke-width:2;stroke-linecap:round;stroke-miterlimit:4;stroke-dasharray:none;stroke-opacity:1"
     id="path9563"
     cx="16.390541"
     cy="4.3959842"
     r="8"
     transform="rotate(30)" />
  <path
     id="rect9851"
     style="fill:#000000;fill-opacity:1;stroke:none;stroke-width:2.10819;stroke-linecap:round;stroke-miterlimit:4;stroke-dasharray:none;stroke-opacity:1"
     d="m 14.589904,0.50892883 -0.25012,0.43331424 A 0.7496345,0.7496345 74.980721 0 0 14.614581,1.96642 l 0.21745,0.1253769 -1,1.7324219 4.330078,2.5 1,-1.7324219 0.215864,0.1247432 a 0.74963392,0.74963392 165.00867 0 0 1.024311,-0.274297 l 0.25012,-0.4333143 A 0.75005231,0.75005231 74.996683 0 0 20.377816,2.9843899 L 15.614372,0.23436005 a 0.74994769,0.74994769 164.99668 0 0 -1.024468,0.27456878 z"
     inkscape:path-effect="#path-effect1012"
     inkscape:original-d="M 14.964844 -0.140625 L 13.964844 1.5917969 L 14.832031 2.0917969 L 13.832031 3.8242188 L 18.162109 6.3242188 L 19.162109 4.5917969 L 20.027344 5.0917969 L 21.027344 3.359375 L 14.964844 -0.140625 z " />
  <path
     id="path11662"
     style="fill:#000000;stroke:none;stroke-width:1px;stroke-linecap:butt;stroke-linejoin:miter;stroke-opacity:1;fill-opacity:1"
     d="M 20 10 C 19.91452 10 19.832361 10.001367 19.748047 10.001953 C 19.799662 10.201572 19.840754 10.406073 19.876953 10.611328 L 20 10 z M 17.6875 10.083984 C 15.33357 10.262203 13.510902 10.729295 12.066406 11.488281 C 12.218162 11.583495 12.373824 11.681247 12.521484 11.771484 C 13.611969 12.437891 14.607149 12.94611 15.664062 13.087891 C 16.345172 13.179259 17.07599 13.135171 17.939453 12.847656 C 17.978302 12.570574 18 12.288177 18 12 C 18 11.329182 17.888537 10.68521 17.6875 10.083984 z M 10.275391 12.740234 C 10.182123 12.825457 10.089201 12.910799 10 13 L 16 16 L 16.667969 15.777344 C 16.862157 15.537202 17.037686 15.280634 17.193359 15.011719 C 16.566814 15.115559 15.964485 15.144293 15.398438 15.068359 C 13.892853 14.866391 12.638029 14.187107 11.478516 13.478516 C 11.069002 13.228257 10.670882 12.980257 10.275391 12.740234 z " />
  <path
     id="path12158"
     style="opacity:1;fill:#000000;fill-opacity:1;stroke:none;stroke-width:2.52982;stroke-linecap:round;stroke-miterlimit:4;stroke-dasharray:none;stroke-opacity:1"
     d="m 11.5,9 c -1.019413,0.00158 -2.0181653,0.2091705 -2.8847656,0.5996094 0.899877,0.3582017 1.7121416,0.8168136 2.4667966,1.2773436 l 0.519531,-0.273437 C 12.419963,10.1735 13.33287,9.8354972 14.355469,9.5820312 13.494873,9.2015402 12.507144,9.000211 11.5,9 Z m 4.978516,2.302734 c -0.631209,0.08896 -1.213371,0.201838 -1.740235,0.341797 0.339322,0.129883 0.740815,0.410495 1.058594,0.453125 0.328342,0.04405 0.671096,0.04382 1.052734,-0.02148 -0.08698,-0.266369 -0.211327,-0.525541 -0.371093,-0.773438 z"
     sodipodi:nodetypes="ccccccccscc" />
  <path
     id="path10833"
     style="fill:#000000;fill-opacity:1;stroke:none;stroke-width:1px;stroke-linecap:butt;stroke-linejoin:miter;stroke-opacity:1"
     d="M 4.2617188 9.9667969 C 4.1749951 9.9765887 4.0882946 9.9873865 4 10 L 4.1035156 10.722656 C 4.1448526 10.467072 4.1966373 10.213782 4.2617188 9.9667969 z M 6.3417969 9.9960938 C 6.1215845 10.622164 6 11.296501 6 12 C 6 15.32555 8.6744502 18 12 18 C 14.639481 18 16.866339 16.314938 17.673828 13.957031 C 13.166757 15.03181 10.843778 10.658135 6.3417969 9.9960938 z M 20 13 C 19.976771 13.013274 19.95476 13.026052 19.931641 13.039062 C 19.922759 13.106986 19.914882 13.174802 19.904297 13.242188 L 20 13 z M 4.7753906 15.427734 L 5 17 L 6.3945312 17.697266 C 5.7309466 17.044256 5.1805877 16.276998 4.7753906 15.427734 z M 18.591797 16.523438 C 18.122804 17.204076 17.549835 17.80772 16.898438 18.314453 L 18 18 L 18.591797 16.523438 z M 10.826172 19.914062 L 11 20 L 11.15625 19.955078 C 11.04524 19.943355 10.935804 19.93031 10.826172 19.914062 z " />
</svg>

<svg xmlns="http://www.w3.org/2000/svg" data-name="Layer 1" viewBox="0 0 24 24"><circle cx="16.391" cy="4.396" r="8" style="fill:none;fill-opacity:1;stroke:#000;stroke-width:2;stroke-linecap:round;stroke-miterlimit:4;stroke-dasharray:none;stroke-opacity:1" transform="rotate(30)"/><path d="m14.59.509-.25.433a.75.75 74.98 0 0 .275 1.024l.217.126-1 1.732 4.33 2.5 1-1.732.216.125a.75.75 165.009 0 0 1.024-.275l.25-.433a.75.75 74.997 0 0-.274-1.025L15.614.234A.75.75 164.997 0 0 14.59.51z" style="fill:#000;fill-opacity:1;stroke:none;stroke-width:2.10819;stroke-linecap:round;stroke-miterlimit:4;stroke-dasharray:none;stroke-opacity:1"/><path d="m20 10-.252.002c.052.2.093.404.129.61zm-2.312.084c-2.354.178-4.177.645-5.622 1.404.152.095.308.193.455.283 1.091.667 2.086 1.175 3.143 1.317.681.091 1.412.047 2.275-.24a6.031 6.031 0 0 0-.252-2.764m-7.413 2.656c-.093.085-.186.17-.275.26l6 3 .668-.223c.194-.24.37-.496.525-.765-.626.104-1.229.132-1.795.056-1.505-.202-2.76-.88-3.92-1.59-.409-.25-.807-.498-1.203-.738" style="fill:#000;stroke:none;stroke-width:1px;stroke-linecap:butt;stroke-linejoin:miter;stroke-opacity:1;fill-opacity:1"/><path d="M11.5 9a7.102 7.102 0 0 0-2.885.6c.9.358 1.712.816 2.467 1.277l.52-.273c.818-.43 1.73-.769 2.753-1.022A7.117 7.117 0 0 0 11.5 9m4.979 2.303a14.86 14.86 0 0 0-1.74.342c.339.13.74.41 1.058.453a3.43 3.43 0 0 0 1.053-.022 3.346 3.346 0 0 0-.371-.773" style="opacity:1;fill:#000;fill-opacity:1;stroke:none;stroke-width:2.52982;stroke-linecap:round;stroke-miterlimit:4;stroke-dasharray:none;stroke-opacity:1"/><path d="M4.262 9.967c-.087.01-.174.02-.262.033l.104.723c.04-.256.093-.51.158-.756m2.08.03A6.017 6.017 0 0 0 6 12c0 3.326 2.674 6 6 6a5.982 5.982 0 0 0 5.674-4.043c-4.507 1.075-6.83-3.299-11.332-3.96M20 13l-.068.04c-.01.067-.017.135-.028.202zM4.775 15.428 5 17l1.395.697a8.05 8.05 0 0 1-1.62-2.27m13.817 1.095a8.083 8.083 0 0 1-1.694 1.791L18 18l.592-1.477m-7.766 3.391L11 20l.156-.045a7.914 7.914 0 0 1-.33-.04" style="fill:#000;fill-opacity:1;stroke:none;stroke-width:1px;stroke-linecap:butt;stroke-linejoin:miter;stroke-opacity:1"/></svg>
